src/assets/filled/FlashCircle1.svg

<svg width="24" height="24" viewBox="0 0 24 24"  xmlns="http://www.w3.org/2000/svg">
<path d="M11.97 2C6.44997 2 1.96997 6.48 1.96997 12C1.96997 17.52 6.44997 22 11.97 22C17.49 22 21.97 17.52 21.97 12C21.97 6.48 17.5 2 11.97 2ZM15.72 12.35L12 16.58L11.56 17.08C10.95 17.77 10.45 17.59 10.45 16.66V12.7H8.74997C7.97997 12.7 7.76997 12.23 8.27997 11.65L12 7.42L12.44 6.92C13.05 6.23 13.55 6.41 13.55 7.34V11.3H15.25C16.02 11.3 16.23 11.77 15.72 12.35Z" />
</svg>

<?xml version="1.0" encoding="UTF-8"?>
<svg width="24" height="24" viewBox="0 0 24 24" xmlns="http://www.w3.org/2000/svg">
 <path d="m11.97 2c-5.52 0-10 4.48-10 10s4.48 10 10 10c5.52 0 10-4.48 10-10s-4.47-10-10-10zm3.75 10.35-3.72 4.23-0.44 0.5c-0.61 0.69-1.11 0.51-1.11-0.42v-3.96h-1.7c-0.77 0-0.98-0.47-0.47-1.05l3.72-4.23 0.44-0.5c0.61-0.69 1.11-0.51 1.11 0.42v3.96h1.7c0.77 0 0.98 0.47 0.47 1.05z"/>
</svg>
